src/lib/packages/icons/src/assets/line/envelope-lock.svg

<svg width="24" height="24" viewBox="0 0 24 24" fill="none" xmlns="http://www.w3.org/2000/svg">
<path d="M14.75 19C14.75 19.414 14.414 19.75 14 19.75H5C2.582 19.75 1.25 18.418 1.25 16V7C1.25 4.582 2.582 3.25 5 3.25H17C19.418 3.25 20.75 4.582 20.75 7V11C20.75 11.414 20.414 11.75 20 11.75C19.586 11.75 19.25 11.414 19.25 11V7C19.25 5.423 18.577 4.75 17 4.75H5C3.423 4.75 2.75 5.423 2.75 7V16C2.75 17.577 3.423 18.25 5 18.25H14C14.414 18.25 14.75 18.586 14.75 19ZM16.0591 7.394L11.147 10.966C11.059 11.029 10.942 11.029 10.854 10.966L5.94189 7.394C5.60389 7.149 5.13704 7.22601 4.89404 7.55901C4.65004 7.89401 4.72408 8.36399 5.05908 8.60699L9.97095 12.179C10.2789 12.403 10.64 12.515 11 12.515C11.36 12.515 11.7221 12.403 12.0291 12.179L16.9409 8.60699C17.2759 8.36399 17.35 7.89401 17.106 7.55901C16.863 7.22501 16.3961 7.148 16.0591 7.394ZM22.75 18.125V19.875C22.75 21.031 22.031 21.75 20.875 21.75H18.125C16.969 21.75 16.25 21.031 16.25 19.875V18.125C16.25 17.3 16.621 16.704 17.25 16.427V15.5C17.25 14.259 18.26 13.25 19.5 13.25C20.74 13.25 21.75 14.259 21.75 15.5V16.427C22.379 16.704 22.75 17.3 22.75 18.125ZM18.75 15.5V16.25H20.25V15.5C20.25 15.086 19.913 14.75 19.5 14.75C19.087 14.75 18.75 15.086 18.75 15.5ZM21.25 18.125C21.25 17.846 21.213 17.775 21.011 17.758C21.007 17.758 21.004 17.76 21 17.76C20.993 17.76 20.987 17.756 20.979 17.756C20.945 17.754 20.918 17.75 20.875 17.75H18.125C18.081 17.75 18.055 17.754 18.021 17.756C18.014 17.756 18.008 17.76 18 17.76C17.996 17.76 17.993 17.758 17.989 17.758C17.787 17.775 17.75 17.846 17.75 18.125V19.875C17.75 20.211 17.788 20.25 18.125 20.25H20.875C21.212 20.25 21.25 20.211 21.25 19.875V18.125Z" fill="currentColor"/>
</svg>

<svg xmlns="http://www.w3.org/2000/svg" width="24" height="24" fill="none"><path fill="currentColor" d="M14.75 19a.75.75 0 0 1-.75.75H5c-2.418 0-3.75-1.332-3.75-3.75V7c0-2.418 1.332-3.75 3.75-3.75h12c2.418 0 3.75 1.332 3.75 3.75v4a.75.75 0 0 1-1.5 0V7c0-1.577-.673-2.25-2.25-2.25H5c-1.577 0-2.25.673-2.25 2.25v9c0 1.577.673 2.25 2.25 2.25h9a.75.75 0 0 1 .75.75Zm1.31-11.606-4.913 3.572a.25.25 0 0 1-.293 0L5.942 7.394a.75.75 0 0 0-.883 1.213l4.912 3.572a1.748 1.748 0 0 0 2.058 0l4.912-3.572a.75.75 0 0 0-.882-1.213Zm6.69 10.731v1.75c0 1.156-.719 1.875-1.875 1.875h-2.75c-1.156 0-1.875-.719-1.875-1.875v-1.75c0-.825.371-1.421 1-1.698V15.5c0-1.241 1.01-2.25 2.25-2.25s2.25 1.009 2.25 2.25v.927c.629.277 1 .873 1 1.698Zm-4-2.625v.75h1.5v-.75a.75.75 0 0 0-1.5 0Zm2.5 2.625c0-.279-.037-.35-.239-.367L21 17.76c-.007 0-.013-.004-.021-.004-.034-.002-.061-.006-.104-.006h-2.75c-.044 0-.07.004-.104.006-.007 0-.013.004-.021.004l-.011-.002c-.202.017-.239.088-.239.367v1.75c0 .336.038.375.375.375h2.75c.337 0 .375-.039.375-.375v-1.75Z"/></svg>
